X: 492
T: LADY BAIRD'S NEW REEL
C: R. MACKINTOSH
R: Reel
B: Glen Collection p.49 #2
Z: 2011 John Chambers <jc:trillian.mit.edu>
M: C|
L: 1/8
V: 1 clef=treble middle=B
V: 2 clef=bass middle=d
%%score {1 | 2}
K: Bm
%
V: 1
(f |\
fd)ec dBB(g | f)aea cAA(g | f)dec dBbg | fedc dBB :|
(g |\
fg)af ebag | fded cAA(g | fg)af ea^ga | fdec dB-B(g |
f)gaf ebag | fded c(AAc) | dBec fdbg | fedc (dBB) |]
%
V: 2
z |\
B2[^a2f2] [b2f2][b2f2] | a2[e'2c'2] e2[c'2a2] |\
[d'2b2][e'2c'2] [f'2d'2]e2 | f2[^a2f2] [b2B2][bB2] :|
z |\
d2[d'2a2] d2[c'2a2] | d2[d'2a2] A2[c'2a2] |\
d2[d'2a2] a2[e'2c'2] | f2^a2 b2[b2B2] |
d2[d'2a2] d2[c'2a2] | d2[d'2a2] A2a2 |\
b2g2 f2e2 | f2[^a2f2] [b2B2][bfB] |]
